X:1
T:James Gibb editions
T:Litaniae  lauretanae - Bottazzo
T:#
%%score { 1 | 2 } 3
L:1/8
Q:1/4=88
M:4/4
K:F
V:1 treble nm="Soprano I" snm="S"
V:2 treble 
V:3 treble nm="Alto" snm="A"
V:1
"^Litaniae lauretanae I""^Luigi Bottazzo\n (1845-1924)""^moderato"!mf! c4 f2 c2 | (A3 B)"^," c4 | %2
w: San- cta Ma-|ri\- * a,|
 c2 (de) f2 d2 | e3 e e2 z2 |[M:4/4] c2 f2 d2 (gf) | e3 f f2 fd | c2 dB (A2 G2) | !fermata!A8 |] %8
w: San- cta * De- i|Ge- ne- trix,|San- cta Vir- go *|vir- gi- num, o- ra,|o- ra pro no\- *|bis.|
[K:Eb]"^Litaniae lauretanae II"!mf! (B2 cd) e2 c2 | (A3 B) c4 | c2 (de) f2 d2 | B3 B B4 | %12
w: San\- * * cta Ma-|ri\- * a,|San- cta * De- i|Ge- ne- trix,|
 e2 e2 e2 f2 | g3 f e2 fe | d4 c2 e2 | (e2 d2) !fermata!e4 |] %16
w: San- cta Vir- go|vir- gi- num, o- ra,|o- ra pro|no\- * bis.|
V:2
!mf! A4 A2 G2 | (F2 G2)"^," A4 | A2 A2 A2 =B2 | c3 G c2 z2 |[M:4/4] A2 A2 _B2 B2 | B3 A A2 BB | %6
w: San- cta Ma-|ri\- * a,|San- cta De- i|Ge- ne- trix,|San- cta Vir- go|vir- gi- num, o- ra,|
 A2 FF (F2 E2) | !fermata!F8 |][K:Eb]!mf! G4 G2 G2 | (F3 G) A4 | A2 A2 A2 A2 | G3 G G4 | %12
w: o- ra pro no\- *|bis.|San- cta Ma-|ri\- * a,|San- cta De- i|Ge- ne- trix,|
 G2 (AB) c2 c2 | =B2 (cd) c2 c_B | A4 G2 A2 | (F2 BA) !fermata!G4 |] %16
w: San- cta * Vir- go|vir- gi\- * num, o- ra,|o- ra pro|no\- * * bis.|
V:3
!mf! F4 D2 E2 | F4"^," F4 | F2 F2 D2 G2 | C3 C C2 z2 |[M:4/4] F2 D2 (GF) (ED) | ^C3 D D2 DE | %6
w: San- cta Ma-|ri- a,|San- cta De- i|Ge- ne- trix,|San- cta Vir\- * go *|vir- gi- num, o- ra,|
 F2 B,D C4 | !fermata!F8 |][K:Eb]!mf! E4 C2 E2 | F4 F4 | F2 F2 D2 B,2 | E3 E E4 | E2 (FG) A2 A2 | %13
w: o- ra pro no-|bis.|San- cta Ma-|ri- a,|San- cta De- i|Ge- ne- trix,|San- cta * Vir- go|
 G2 (=A=B) (c_B)_AG | F4 E2 C2 | B,4 !fermata!E4 |] %16
w: vir- gi\- * num, * o- ra,|o- ra pro|no- bis.|

